src/assets/shuffle-ux-light.svg

<svg width="104" height="32" viewBox="0 0 104 32" fill="none" xmlns="http://www.w3.org/2000/svg">
<path d="M30.896 22.216C30.068 22.216 29.3 22.06 28.592 21.748C27.884 21.436 27.272 21.01 26.756 20.47L27.656 19.426C28.076 19.87 28.568 20.23 29.132 20.506C29.708 20.77 30.302 20.902 30.914 20.902C31.694 20.902 32.3 20.728 32.732 20.38C33.164 20.02 33.38 19.552 33.38 18.976C33.38 18.676 33.326 18.424 33.218 18.22C33.122 18.004 32.984 17.824 32.804 17.68C32.636 17.524 32.432 17.386 32.192 17.266C31.952 17.146 31.694 17.02 31.418 16.888L29.726 16.15C29.45 16.03 29.168 15.886 28.88 15.718C28.592 15.55 28.334 15.346 28.106 15.106C27.878 14.866 27.692 14.584 27.548 14.26C27.404 13.924 27.332 13.54 27.332 13.108C27.332 12.664 27.422 12.25 27.602 11.866C27.794 11.482 28.052 11.152 28.376 10.876C28.712 10.588 29.102 10.366 29.546 10.21C30.002 10.054 30.5 9.976 31.04 9.976C31.748 9.976 32.402 10.114 33.002 10.39C33.602 10.654 34.112 11.002 34.532 11.434L33.722 12.406C33.362 12.058 32.96 11.788 32.516 11.596C32.084 11.392 31.592 11.29 31.04 11.29C30.38 11.29 29.846 11.446 29.438 11.758C29.042 12.058 28.844 12.478 28.844 13.018C28.844 13.306 28.898 13.552 29.006 13.756C29.126 13.948 29.282 14.122 29.474 14.278C29.666 14.422 29.876 14.554 30.104 14.674C30.332 14.782 30.566 14.884 30.806 14.98L32.48 15.7C32.816 15.844 33.134 16.012 33.434 16.204C33.734 16.384 33.992 16.6 34.208 16.852C34.424 17.092 34.592 17.38 34.712 17.716C34.844 18.04 34.91 18.418 34.91 18.85C34.91 19.318 34.814 19.756 34.622 20.164C34.442 20.572 34.178 20.932 33.83 21.244C33.482 21.544 33.062 21.784 32.57 21.964C32.078 22.132 31.52 22.216 30.896 22.216ZM37.0912 22V9.184H38.5672V12.676L38.5132 14.476C38.9332 14.08 39.3712 13.744 39.8272 13.468C40.2832 13.18 40.8172 13.036 41.4292 13.036C42.3532 13.036 43.0252 13.324 43.4452 13.9C43.8772 14.476 44.0932 15.328 44.0932 16.456V22H42.6172V16.654C42.6172 15.826 42.4852 15.232 42.2212 14.872C41.9572 14.5 41.5372 14.314 40.9612 14.314C40.5052 14.314 40.1032 14.428 39.7552 14.656C39.4072 14.884 39.0112 15.22 38.5672 15.664V22H37.0912ZM49.4383 22.216C48.5023 22.216 47.8183 21.928 47.3863 21.352C46.9663 20.776 46.7563 19.924 46.7563 18.796V13.252H48.2503V18.598C48.2503 19.426 48.3763 20.026 48.6283 20.398C48.8923 20.758 49.3123 20.938 49.8883 20.938C50.3443 20.938 50.7463 20.824 51.0943 20.596C51.4423 20.356 51.8263 19.978 52.2463 19.462V13.252H53.7223V22H52.4983L52.3723 20.632H52.3183C51.9103 21.112 51.4783 21.496 51.0223 21.784C50.5783 22.072 50.0503 22.216 49.4383 22.216ZM62.0553 22V14.458H58.4013V22H56.9253V14.458H55.7373V13.342L56.9253 13.252V12.1C56.9253 11.188 57.1473 10.468 57.5913 9.94C58.0473 9.412 58.7313 9.148 59.6433 9.148C59.9313 9.148 60.2133 9.178 60.4893 9.238C60.7773 9.298 61.0293 9.376 61.2453 9.472L60.9393 10.588C60.5793 10.432 60.1893 10.354 59.7693 10.354C59.3373 10.354 59.0013 10.51 58.7613 10.822C58.5213 11.122 58.4013 11.56 58.4013 12.136V13.252H62.0553V11.866C62.0553 10.966 62.2593 10.258 62.6673 9.742C63.0873 9.226 63.7353 8.968 64.6113 8.968C64.8873 8.968 65.1453 8.998 65.3853 9.058C65.6373 9.106 65.8653 9.172 66.0693 9.256L65.7453 10.39C65.4213 10.246 65.0913 10.174 64.7553 10.174C63.9393 10.174 63.5313 10.738 63.5313 11.866V13.252H65.3853V14.458H63.5313V22H62.0553ZM68.6279 22.216C68.0639 22.216 67.6619 22.048 67.4219 21.712C67.1819 21.376 67.0619 20.884 67.0619 20.236V9.184H68.5379V20.344C68.5379 20.584 68.5799 20.752 68.6639 20.848C68.7479 20.944 68.8439 20.992 68.9519 20.992C68.9999 20.992 69.0419 20.992 69.0779 20.992C69.1259 20.992 69.1919 20.98 69.2759 20.956L69.4739 22.072C69.3779 22.12 69.2639 22.156 69.1319 22.18C68.9999 22.204 68.8319 22.216 68.6279 22.216ZM75.1958 22.216C74.6078 22.216 74.0558 22.114 73.5398 21.91C73.0358 21.694 72.5918 21.394 72.2078 21.01C71.8358 20.614 71.5418 20.134 71.3258 19.57C71.1098 19.006 71.0018 18.364 71.0018 17.644C71.0018 16.924 71.1098 16.282 71.3258 15.718C71.5538 15.142 71.8478 14.656 72.2078 14.26C72.5798 13.864 72.9998 13.564 73.4678 13.36C73.9358 13.144 74.4218 13.036 74.9258 13.036C75.4778 13.036 75.9698 13.132 76.4018 13.324C76.8458 13.516 77.2118 13.792 77.4998 14.152C77.7998 14.512 78.0278 14.944 78.1838 15.448C78.3398 15.952 78.4178 16.516 78.4178 17.14C78.4178 17.296 78.4118 17.452 78.3998 17.608C78.3998 17.752 78.3878 17.878 78.3638 17.986H72.4598C72.5198 18.922 72.8078 19.666 73.3238 20.218C73.8518 20.758 74.5358 21.028 75.3758 21.028C75.7958 21.028 76.1798 20.968 76.5278 20.848C76.8878 20.716 77.2298 20.548 77.5538 20.344L78.0758 21.316C77.6918 21.556 77.2658 21.766 76.7978 21.946C76.3298 22.126 75.7958 22.216 75.1958 22.216ZM72.4418 16.924H77.1218C77.1218 16.036 76.9298 15.364 76.5458 14.908C76.1738 14.44 75.6458 14.206 74.9618 14.206C74.6498 14.206 74.3498 14.266 74.0618 14.386C73.7858 14.506 73.5338 14.686 73.3058 14.926C73.0778 15.154 72.8858 15.436 72.7298 15.772C72.5858 16.108 72.4898 16.492 72.4418 16.924ZM88.521 22.216C87.921 22.216 87.357 22.132 86.829 21.964C86.313 21.784 85.863 21.496 85.479 21.1C85.107 20.692 84.813 20.164 84.597 19.516C84.381 18.868 84.273 18.07 84.273 17.122V10.192H85.767V17.158C85.767 17.866 85.839 18.46 85.983 18.94C86.127 19.42 86.319 19.804 86.559 20.092C86.811 20.38 87.105 20.59 87.441 20.722C87.777 20.842 88.137 20.902 88.521 20.902C88.917 20.902 89.283 20.842 89.619 20.722C89.955 20.59 90.249 20.38 90.501 20.092C90.753 19.804 90.951 19.42 91.095 18.94C91.239 18.46 91.311 17.866 91.311 17.158V10.192H92.751V17.122C92.751 18.07 92.643 18.868 92.427 19.516C92.211 20.164 91.911 20.692 91.527 21.1C91.155 21.496 90.711 21.784 90.195 21.964C89.679 22.132 89.121 22.216 88.521 22.216ZM94.4028 22L97.8408 15.898L94.6368 10.192H96.2928L97.8948 13.216C98.0508 13.492 98.1948 13.762 98.3268 14.026C98.4708 14.278 98.6328 14.578 98.8128 14.926H98.8848C99.0528 14.578 99.1968 14.278 99.3168 14.026C99.4488 13.762 99.5868 13.492 99.7308 13.216L101.297 10.192H102.881L99.6588 15.97L103.097 22H101.441L99.7128 18.814C99.5568 18.526 99.3948 18.232 99.2268 17.932C99.0708 17.62 98.8968 17.284 98.7048 16.924H98.6328C98.4648 17.284 98.3028 17.62 98.1468 17.932C97.9908 18.232 97.8408 18.526 97.6968 18.814L95.9868 22H94.4028Z" fill="white"/>
<path d="M19 13H14V7.00001C14 6.70001 13.8 6.40001 13.6 6.20001C13.2 5.90001 12.5 6.00001 12.2 6.40001L4.2 17.4C4.1 17.6 4 17.8 4 18C4 18.6 4.4 19 5 19H10V25C10 25.6 10.4 26 11 26C11.3 26 11.6 25.8 11.8 25.6L19.8 14.6C19.9 14.4 20 14.2 20 14C20 13.4 19.6 13 19 13Z" fill="#F1F5FB"/>
</svg>

<svg fill="none" height="32" viewBox="0 0 104 32" width="104" xmlns="http://www.w3.org/2000/svg"><path d="m30.896 22.216c-.828 0-1.596-.156-2.304-.468s-1.32-.738-1.836-1.278l.9-1.044c.42.444.912.804 1.476 1.08.576.264 1.17.396 1.782.396.78 0 1.386-.174 1.818-.522.432-.36.648-.828.648-1.404 0-.3-.054-.552-.162-.756-.096-.216-.234-.396-.414-.54-.168-.156-.372-.294-.612-.414s-.498-.246-.774-.378l-1.692-.738c-.276-.12-.558-.264-.846-.432s-.546-.372-.774-.612-.414-.522-.558-.846c-.144-.336-.216-.72-.216-1.152 0-.444.09-.858.27-1.242.192-.384.45-.714.774-.99.336-.288.726-.51 1.17-.666.456-.156.954-.234 1.494-.234.708 0 1.362.138 1.962.414.6.264 1.11.612 1.53 1.044l-.81.972c-.36-.348-.762-.618-1.206-.81-.432-.204-.924-.306-1.476-.306-.66 0-1.194.156-1.602.468-.396.3-.594.72-.594 1.26 0 .288.054.534.162.738.12.192.276.366.468.522.192.144.402.276.63.396.228.108.462.21.702.306l1.674.72c.336.144.654.312.954.504.3.18.558.396.774.648.216.24.384.528.504.864.132.324.198.702.198 1.134 0 .468-.096.906-.288 1.314-.18.408-.444.768-.792 1.08-.348.3-.768.54-1.26.72-.492.168-1.05.252-1.674.252zm6.1952-.216v-12.816h1.476v3.492l-.054 1.8c.42-.396.858-.732 1.314-1.008.456-.288.99-.432 1.602-.432.924 0 1.596.288 2.016.864.432.576.648 1.428.648 2.556v5.544h-1.476v-5.346c0-.828-.132-1.422-.396-1.782-.264-.372-.684-.558-1.26-.558-.456 0-.858.114-1.206.342s-.744.564-1.188 1.008v6.336zm12.3471.216c-.936 0-1.62-.288-2.052-.864-.42-.576-.63-1.428-.63-2.556v-5.544h1.494v5.346c0 .828.126 1.428.378 1.8.264.36.684.54 1.26.54.456 0 .858-.114 1.206-.342.348-.24.732-.618 1.152-1.134v-6.21h1.476v8.748h-1.224l-.126-1.368h-.054c-.408.48-.84.864-1.296 1.152-.444.288-.972.432-1.584.432zm12.617-.216v-7.542h-3.654v7.542h-1.476v-7.542h-1.188v-1.116l1.188-.09v-1.152c0-.912.222-1.632.666-2.16.456-.528 1.14-.792 2.052-.792.288 0 .57.03.846.09.288.06.54.138.756.234l-.306 1.116c-.36-.156-.75-.234-1.17-.234-.432 0-.768.156-1.008.468-.24.3-.36.738-.36 1.314v1.116h3.654v-1.386c0-.9.204-1.608.612-2.124.42-.516 1.068-.774 1.944-.774.276 0 .534.03.774.09.252.048.48.114.684.198l-.324 1.134c-.324-.144-.654-.216-.99-.216-.816 0-1.224.564-1.224 1.692v1.386h1.854v1.206h-1.854v7.542zm6.5726.216c-.564 0-.966-.168-1.206-.504s-.36-.828-.36-1.476v-11.052h1.476v11.16c0 .24.042.408.126.504s.18.144.288.144h.126c.048 0 .114-.012.198-.036l.198 1.116c-.096.048-.21.084-.342.108s-.3.036-.504.036zm6.5679 0c-.588 0-1.14-.102-1.656-.306-.504-.216-.948-.516-1.332-.9-.372-.396-.666-.876-.882-1.44s-.324-1.206-.324-1.926.108-1.362.324-1.926c.228-.576.522-1.062.882-1.458.372-.396.792-.696 1.26-.9.468-.216.954-.324 1.458-.324.552 0 1.044.096 1.476.288.444.192.81.468 1.098.828.3.36.528.792.684 1.296s.234 1.068.234 1.692c0 .156-.006.312-.018.468 0 .144-.012.27-.036.378h-5.904c.06.936.348 1.68.864 2.232.528.54 1.212.81 2.052.81.42 0 .804-.06 1.152-.18.36-.132.702-.3 1.026-.504l.522.972c-.384.24-.81.45-1.278.63s-1.002.27-1.602.27zm-2.754-5.292h4.68c0-.888-.192-1.56-.576-2.016-.372-.468-.9-.702-1.584-.702-.312 0-.612.06-.9.18-.276.12-.528.3-.756.54-.228.228-.42.51-.576.846-.144.336-.24.72-.288 1.152zm16.0792 5.292c-.6 0-1.164-.084-1.692-.252-.516-.18-.966-.468-1.35-.864-.372-.408-.666-.936-.882-1.584s-.324-1.446-.324-2.394v-6.93h1.494v6.966c0 .708.072 1.302.216 1.782s.336.864.576 1.152c.252.288.546.498.882.63.336.12.696.18 1.08.18.396 0 .762-.06 1.098-.18.336-.132.63-.342.882-.63s.45-.672.594-1.152.216-1.074.216-1.782v-6.966h1.44v6.93c0 .948-.108 1.746-.324 2.394s-.516 1.176-.9 1.584c-.372.396-.816.684-1.332.864-.516.168-1.074.252-1.674.252zm5.8818-.216 3.438-6.102-3.204-5.706h1.656l1.602 3.024c.156.276.3.546.432.81.144.252.306.552.486.9h.072c.168-.348.312-.648.432-.9.132-.264.27-.534.414-.81l1.5662-3.024h1.584l-3.2222 5.778 3.4382 6.03h-1.656l-1.7282-3.186c-.156-.288-.318-.582-.486-.882-.156-.312-.33-.648-.522-1.008h-.072c-.168.36-.33.696-.486 1.008-.156.3-.306.594-.45.882l-1.71 3.186z" fill="#fff"/><path d="m19 13h-5v-5.99999c0-.3-.2-.6-.4-.8-.4-.3-1.1-.2-1.4.2l-8 10.99999c-.1.2-.2.4-.2.6 0 .6.4 1 1 1h5v6c0 .6.4 1 1 1 .3 0 .6-.2.8-.4l8-11c.1-.2.2-.4.2-.6 0-.6-.4-1-1-1z" fill="#f1f5fb"/></svg>
